li/gui-folder-video.svg

<svg role="img" focusable="false" aria-hidden="true" xmlns="http://www.w3.org/2000/svg" viewBox="0 0 14 14" height="1em" width="1em">
  <path d="M 2.6152344 1.9238281 C 2.1729297 1.9238281 1.7938698 2.0811242 1.4765625 2.3984375 C 1.1592545 2.7157442 1 3.0967558 1 3.5390625 L 1 10.460938 C 1 10.903244 1.1592545 11.284256 1.4765625 11.601562 C 1.7938698 11.918869 2.1729297 12.076172 2.6152344 12.076172 L 11.384766 12.076172 C 11.827072 12.076172 12.206131 11.918869 12.523438 11.601562 C 12.840744 11.284256 13 10.903244 13 10.460938 L 13 5.3847656 C 13 4.942459 12.840744 4.5634004 12.523438 4.2460938 C 12.206131 3.9287871 11.827072 3.7695312 11.384766 3.7695312 L 6.5390625 3.7695312 L 6.5390625 3.5390625 C 6.5390625 3.0967558 6.3798067 2.7157442 6.0625 2.3984375 C 5.7451933 2.0811242 5.3661348 1.9238281 4.9238281 1.9238281 L 2.6152344 1.9238281 z M 4.5214844 4.6738281 L 6.7714844 4.6738281 C 6.8746094 4.6738281 7.0188829 4.7337256 7.0917969 4.8066406 L 9.078125 6.7910156 C 9.151039 6.8639306 9.2089844 7.0082031 9.2089844 7.1113281 L 9.2089844 10.486328 C 9.2089844 10.589458 9.1246094 10.673828 9.0214844 10.673828 L 4.5214844 10.673828 C 4.4183544 10.673828 4.3339844 10.589453 4.3339844 10.486328 L 4.3339844 4.8613281 C 4.3339844 4.7582031 4.4183594 4.6738281 4.5214844 4.6738281 z M 7.8964844 4.6738281 L 9.0214844 4.6738281 C 9.1246094 4.6738281 9.2089844 4.7582031 9.2089844 4.8613281 L 9.2089844 5.9863281 C 9.2089844 6.0894531 9.151051 6.1139406 9.078125 6.0410156 L 7.8417969 4.8066406 C 7.7688829 4.7337256 7.7933594 4.6738281 7.8964844 4.6738281 z M 4.7089844 5.0488281 L 4.7089844 10.298828 L 8.8339844 10.298828 L 8.8339844 7.1171875 C 8.8311744 7.1000975 8.8186837 7.0667844 8.8085938 7.0527344 L 6.8300781 5.0761719 C 6.8160031 5.0660719 6.7846631 5.0518281 6.7675781 5.0488281 L 4.7089844 5.0488281 z M 5.2714844 7.0175781 L 5.6542969 7.0175781 L 5.6542969 7.3457031 L 5.2714844 7.3457031 L 5.2714844 7.0175781 z M 5.9980469 7.0175781 L 7.546875 7.0175781 L 7.546875 8.1621094 L 5.9980469 8.1621094 L 5.9980469 7.0175781 z M 7.890625 7.0175781 L 8.2714844 7.0175781 L 8.2714844 7.3457031 L 7.890625 7.3457031 L 7.890625 7.0175781 z M 5.2714844 7.5898438 L 5.6542969 7.5898438 L 5.6542969 7.9179688 L 5.2714844 7.9179688 L 5.2714844 7.5898438 z M 7.890625 7.5898438 L 8.2714844 7.5898438 L 8.2714844 7.9179688 L 7.890625 7.9179688 L 7.890625 7.5898438 z M 5.2714844 8.1601562 L 5.6542969 8.1601562 L 5.6542969 8.4882812 L 5.2714844 8.4882812 L 5.2714844 8.1601562 z M 7.890625 8.1601562 L 8.2714844 8.1601562 L 8.2714844 8.4882812 L 7.890625 8.4882812 L 7.890625 8.1601562 z M 5.9980469 8.4902344 L 7.546875 8.4902344 L 7.546875 9.6347656 L 5.9980469 9.6347656 L 5.9980469 8.4902344 z M 5.2714844 8.734375 L 5.6542969 8.734375 L 5.6542969 9.0625 L 5.2714844 9.0625 L 5.2714844 8.734375 z M 7.890625 8.734375 L 8.2714844 8.734375 L 8.2714844 9.0625 L 7.890625 9.0625 L 7.890625 8.734375 z M 5.2714844 9.3066406 L 5.6542969 9.3066406 L 5.6542969 9.6347656 L 5.2714844 9.6347656 L 5.2714844 9.3066406 z M 7.890625 9.3066406 L 8.2714844 9.3066406 L 8.2714844 9.6347656 L 7.890625 9.6347656 L 7.890625 9.3066406 z"/>
</svg>

<svg aria-hidden="true" xmlns="http://www.w3.org/2000/svg" viewBox="0 0 14 14" height="1em" width="1em">
  <path d="M2.615 1.924a1.55 1.55 0 0 0-1.138.474A1.558 1.558 0 0 0 1 3.54v6.922c0 .442.16.823.477 1.14.317.318.696.475 1.138.475h8.77a1.55 1.55 0 0 0 1.138-.474c.318-.318.477-.699.477-1.141V5.385c0-.443-.16-.822-.477-1.139a1.553 1.553 0 0 0-1.138-.476H6.539v-.23c0-.443-.16-.824-.476-1.142a1.552 1.552 0 0 0-1.14-.474H2.616zm1.906 2.75h2.25c.104 0 .248.06.32.133L9.079 6.79a.52.52 0 0 1 .131.32v3.375a.188.188 0 0 1-.188.188h-4.5a.188.188 0 0 1-.187-.188V4.861c0-.103.084-.187.187-.187zm3.375 0h1.125c.104 0 .188.084.188.187v1.125c0 .103-.058.128-.13.055L7.841 4.807c-.073-.073-.049-.133.054-.133zm-3.187.375v5.25h4.125V7.117a.204.204 0 0 0-.025-.064L6.83 5.076a.203.203 0 0 0-.062-.027H4.709zm.562 1.969h.383v.328h-.383v-.328zm.727 0h1.549v1.144H5.998V7.018zm1.893 0h.38v.328h-.38v-.328zm-2.62.572h.383v.328h-.383V7.59zm2.62 0h.38v.328h-.38V7.59zm-2.62.57h.383v.328h-.383V8.16zm2.62 0h.38v.328h-.38V8.16zm-1.893.33h1.549v1.145H5.998V8.49zm-.727.244h.383v.329h-.383v-.329zm2.62 0h.38v.329h-.38v-.329zm-2.62.573h.383v.328h-.383v-.328zm2.62 0h.38v.328h-.38v-.328z"/>
</svg>
